X: 34885
T: Robin Tamson's Smiddy
R: jig
M: 6/8
K: Aminor
|A2B c2A|F3 F3|G2G G2B|d2B G2B|
A2B c2A|E3 E3|e2d c2B|A3 A2B||
c2B c2e|d2d dcB|c2B c2e|d2B G2B|
c2B c2e|d2d dcd|e2d c2B|A3 A3||

